svg/format_line_height.svg

<svg xmlns="http://www.w3.org/2000/svg" viewBox="0 0 24 24"><path d="M21 22H3v-2h18zm0-18H3V2h18zm-11 9.7h4l-2-5.4zM11.2 6h1.7l4.7 12h-2l-.9-2.6H9.4L8.5 18h-2z"/></svg>

<svg xmlns="http://www.w3.org/2000/svg" id="mdi-format-line-height" viewBox="0 0 24 24"><path d="M21 22H3V20H21V22M21 4H3V2H21V4M10 13.7H14L12 8.3L10 13.7M11.2 6H12.9L17.6 18H15.6L14.7 15.4H9.4L8.5 18H6.5L11.2 6Z" /></svg>
